!!!COM: Beethoven, Ludwig van
!!!CDT: 1770///-1827///
!!!OTL: Piano Sonata no. 1, mvmt. 1
!!!ODT: 1794///-1795///
!!!ODE: Joseph Haydn
!!!OMV: Allegro
!!!OPS: Op. 2
!!!ONM: No. 1
!!!OMV: No. 1
!!!AGN: Sonata Form
**kern	**dynam	**kern	**dynam
*Ipiano	*Ipiano	*Ipiano	*Ipiano
*>[A,A,B,B]	*>[A,A,B,B]	*>[A,A,B,B]	*>[A,A,B,B]
*>A	*>A	*>A	*>A
*clefF4	*clefF4	*clefG2	*clefG2
*k[b-e-a-d-]	*k[b-e-a-d-]	*k[b-e-a-d-]	*k[b-e-a-d-]
*f:	*f:	*f:	*f:
*M2/2	*M2/2	*M2/2	*M2/2
*MM240	*MM240	*MM240	*MM240
=1-	=1-	=1-	=1-
4r	.	4c'/	p
=2	=2	=2	=2
1r	.	4f'/	.
.	.	4a-'/	.
.	.	4cc'\	.
.	.	4ff'\	.
=3	=3	=3	=3
4r	.	(4.aa-\	.
4F\ 4A-\ 4c\	p	.	.
.	.	24gg\LL	.
.	.	24ff\	.
.	.	24ee\JJ	.
4F\ 4A-\ 4c\	.	4ff'\)	.
4F\ 4A-\ 4c\	.	4r	.
=4	=4	=4	=4
4E\ 4G\ 4B-\ 4c\	.	4g'/	.
4r	.	4cc'\	.
2r	.	4ee'\	.
.	.	4gg'\	.
=5	=5	=5	=5
4r	.	(4.bb-\	.
4E\ 4G\ 4B-\ 4c\	.	.	.
.	.	24aa-\LL	.
.	.	24gg\	.
.	.	24ff\JJ	.
4E\ 4G\ 4B-\ 4c\	.	4gg'\)	.
4E\ 4G\ 4B-\ 4c\	.	4r	.
=6	=6	=6	=6
.	.	(ccq/	.
4r	.	(4.aa-\)	.
4F\ 4A-\ 4c\	.	.	.
.	.	24gg\LL	.
.	.	24ff\	.
.	.	24ee\JJ	.
4F\ 4A-\ 4c\	.	4ff\)	.
4F\ 4A-\ 4c\	.	4r	.
=7	=7	=7	=7
.	.	(ccq/	.
4r	.	(4.bb-\)	.
4G\ 4B-\ 4e\	.	.	.
.	.	24aa-\LL	.
.	.	24gg\	.
.	.	24ff\JJ	.
4G\ 4B-\ 4e\	.	4r	.
4G\ 4B-\ 4e\	.	4gg'\)	.
=8	=8	=8	=8
4r	.	2cc\ 2ff\ 2aa-\ 2ccc\	ff
4A-\ 4c\ 4f\	.	.	.
4r	.	(8bb-\L	.
.	.	8aa-\	.
4B-\ 4d-\ 4g\	.	8gg\	.
.	.	8ff\J)	.
=9	=9	=9	=9
.	.	(eeq/LL	.
.	.	ffq/	.
.	.	ggq/JJ	.
4r	.	(4ff\)	p
4c\ 4g\	.	4ee\)	.
4r;	.	4r;	.
4GG'/	p	4r	.
=10	=10	=10	=10
4C'\	.	1r	.
4E-'\	.	.	.
4G'\	.	.	.
4c'\	.	.	.
=11	=11	=11	=11
(4.e-\	.	1r	.
24d\LL	.	.	.
24c\	.	.	.
24B\JJ	.	.	.
4c'\)	.	.	.
4c'\	.	.	.
=12	=12	=12	=12
*	*	*^	*
1c 1f	.	4r	[1a-	.
.	.	8r	.	.
.	.	(24ee-/LL	.	.
.	.	24dd-/	.	.
.	.	24cc/JJ	.	.
.	.	4dd-'/)	.	.
.	.	4dd-'/	.	.
=13	=13	=13	=13	=13
1B- 1f	.	[1dd-	4.a-\]	.
.	.	.	(24b-\LL	.
.	.	.	24a-\	.
.	.	.	24g\JJ)	.
.	.	.	4a-'\	.
.	.	.	4a-'\	.
=14	=14	=14	=14	=14
1B- 1e-	.	4.dd-/]	1g	.
.	.	(24ee-/LL	.	.
.	.	24dd-/	.	.
.	.	24cc/JJ	.	.
.	.	4dd-'/)	.	.
.	.	4dd-'/	.	.
=15	=15	=15	=15	=15
1A- 1e-	.	4r	1a-	.
.	.	8r	.	.
.	.	(24dd-/LL	.	.
.	.	24cc/	.	.
.	.	24b/JJ	.	.
.	.	4cc'/)	.	.
.	.	4cc'/	.	.
=16	=16	=16	=16	=16
2d-\	.	(4cc/	1f	.
.	.	2b-/	.	.
2d\	.	.	.	.
.	.	4a-/)	.	.
*	*	*v	*v	*
=17	=17	=17	=17
4e-\	.	4g'/	.
4r	.	(4ee-\	.
4r	.	4dd-\)	.
4c\ (4e-\	.	[4cc\	.
=18	=18	=18	=18
2d-\ 2f\)	.	(4cc\]	.
.	.	2b-\	.
2d\ 2f\	.	.	.
.	.	4a-\	.
=19	=19	=19	=19
4e-\	.	4g/)	f
4r	.	(4e-/ 4ee-/	.
4r	.	4d-/ 4dd-/	.
4C\ (4E-\	.	[4c/) [4cc/	.
=20	=20	=20	=20
2D-\ 2F\)	.	(4c/] 4cc/]	.
.	.	2B-/ 2b-/	.
2D\ 2F\	.	.	.
.	.	4A-/ 4a-/	.
=21	=21	=21	=21
8E-\L	.	4G/) 4g/	.
8e-\	.	.	.
8E-\	.	4r	.
8e-\J	.	.	.
8E-\L	.	4r	.
8e-\	.	.	.
8E-\	.	(4ff-\	p
8e-\J	.	.	.
=22	=22	=22	=22
8E-\L	.	4ee-\	.
8e-\	.	.	.
8E-\	.	4dd-\	.
8e-\J	.	.	.
8E-\L	.	4b-\	.
8e-\	.	.	.
8E-\	.	4g/)	.
8e-\J	.	.	.
=23	=23	=23	=23
*^	*	*	*
(2d-/	4E-\	.	(4.f-/	.
.	4E-\	.	.	.
.	.	.	8e-/	.
4c/)	8E-\L	.	4a-'/)	.
.	8e-\	.	.	.
4r	8E-\	.	(4ff-\	.
.	8e-\J	.	.	.
*v	*v	*	*	*
=24	=24	=24	=24
8E-\L	.	4ee-\	.
8e-\	.	.	.
8E-\	.	4dd-\	.
8e-\J	.	.	.
8E-\L	.	4b-\	.
8e-\	.	.	.
8E-\	.	4g/)	.
8e-\J	.	.	.
=25	=25	=25	=25
*^	*	*	*
(2d-/	4E-\	.	(4.f-/	.
.	4E-\	.	.	.
.	.	.	8e-/	.
4c/)	8E-\L	.	4a-'/)	.
.	8e-\	.	.	.
4r	8E-\	.	(4ff-\	.
.	8e-\J	.	.	.
*v	*v	*	*	*
=26	=26	=26	=26
8E-\L	.	4ee-\	.
8e-\	.	.	.
8E-\	.	4dd-\	.
8e-\J	.	.	.
8d-\L	.	4b-\	.
8e-\	.	.	.
8d-\	.	4g/)	.
8e-\J	.	.	.
=27	=27	=27	=27
8c\L	.	8r	.
8e-\	.	(8g/L	.
8c\	.	8b-/	.
8e-\J	.	8a-/J)	.
8G\L	.	8r	.
8e-\	.	(8a/L	.
8G\	.	8cc/	.
8e-\J	.	8b-/J)	.
=28	=28	=28	=28
8A-\L	.	8r	.
8e-\	.	(8b\L	.
8A-\	.	8dd-\	.
8e-\J	.	8cc\J)	.
8F\L	.	8r	.
8d\	.	(8dd\L	.
8A-\	.	8aa-\	.
8d\J	.	8dd\J)	.
=29	=29	=29	=29
8E-\L	.	4ee-\	.
8e-\	.	.	.
8G\	.	4r	.
8e-\J	.	.	.
8F\L	.	8r	.
8d\	.	(8dd\L	.
8A-\	.	8aa-\	.
8d\J	.	8dd\J)	.
=30	=30	=30	=30
8E-\L	.	4ee-\	.
8e-\	.	.	.
8G\	.	4r	.
8e-\J	.	.	.
8D-\L	.	8r	.
8B-\	.	(8gg\L	.
8F-\	.	8fff-\	.
8B-\J	.	8gg\J)	.
=31	=31	=31	=31
8C\L	.	4aa-\	.
8A-\	.	.	.
8E-\	.	4r	.
8A-\J	.	.	.
8D-\L	.	8r	.
8B-\	.	(8gg\L	.
8F-\	.	8fff-\	.
8B-\J	.	8gg\J)	.
=32	=32	=32	=32
8C\L	.	8r	.
8A-\	.	(8gg\L	.
8E-\	.	8bb-\	.
8A-\J	.	8aa-\J)	.
8GG\L	.	8r	.
8G\	.	(8aa\L	.
8E-\	.	8ccc\	.
8G\J	.	8bb-\J)	.
=33	=33	=33	=33
8AA-\L	.	8r	.
8A-\	.	(8bb\L	.
8E-\	.	8ddd-\	.
8A-\J	.	8ccc\J)	.
8BB-\L	.	8r	.
8B-\	.	(8ccc\L	.
8E-\	.	8eee-\	.
8B-\J	.	8ddd-\J)	.
=34	=34	=34	=34
4C\	.	8r	.
.	.	(8ddd\L	f
2E-\	.	8fff\	.
.	.	8eee-\J	.
.	.	8ddd-\L	.
.	.	8ccc\	.
4A-\	.	8bb-\	.
.	.	8aa-\J	.
=35	=35	=35	=35
4D-\	.	8gg\L	.
.	.	8ff\	.
2F\	.	8ee-\	.
.	.	8dd-\J	.
.	.	8cc\L	.
.	.	8b-\	.
4B-\	.	8a-\	.
.	.	8g\J)	.
=36	=36	=36	=36
4E-\	.	(8f/L	p
.	.	8e-/	.
2A-\	.	8d/	.
.	.	8e-/J	.
.	.	8d/L	.
.	.	8e-/	.
4c\	.	8d/	.
.	.	8e-/J	.
=37	=37	=37	=37
(4d-\	.	8d/L	.
.	.	8e-/	.
4B-\	.	8f/	.
.	.	8e-/J	.
4G\	.	8d/L	.
.	.	8e-/	.
4D-\)	.	8f/	.
.	.	8e-/J)	.
=38	=38	=38	=38
4CC/	.	8r	.
.	.	(8aa-\L	f
2EE-/	.	8fff\	.
.	.	8eee-\J	.
.	.	8ddd-\L	.
.	.	8ccc\	.
4AA-/	.	8bb-\	.
.	.	8aa-\J	.
=39	=39	=39	=39
4DD-/	.	8gg\L	.
.	.	8ff\	.
2FF/	.	8ee-\	.
.	.	8dd-\J	.
.	.	8cc\L	.
.	.	8b-\	.
4BB-/	.	8a-\	.
.	.	8g\J	.
=40	=40	=40	=40
4EE-/	.	8f/L	p
.	.	8e-/	.
2AA-/	.	8d-/	.
.	.	8c/J	.
*	*	*clefF4	*clefF4
.	.	8B-\L	.
.	.	8A-\	.
4C/	.	8G\	.
.	.	8F\J	.
=41	=41	=41	=41
(4D-/	.	8E-\L	.
.	.	8F\	.
4BB-/	.	8G\	.
.	.	8A-\J	.
4GG/	.	8B-\L	.
.	.	8c\	.
4EE-/)	.	8d-\	.
.	.	8B-\J	.
=42	=42	=42	=42
4AA-/	.	4A-\)	.
*	*	*clefG2	*clefG2
4A-\	.	4r	.
.	.	(dq/	.
4r	.	(4.cc-\)	.
4D'\ 4F'\ 4A-'\ 4c-'\	.	.	.
.	.	8b-\)	.
=43	=43	=43	=43
4r	.	2a-/	.
4E-'\ 4A-'\ 4c'\	.	.	.
4r	.	(4.g/	.
4E-'\ 4B-'\ 4d-'\	.	.	.
.	.	8ee-\)	.
=44	=44	=44	=44
4r	.	(4ee-\	.
4A-'\ 4c'\	.	4a-\)	.
.	.	(dq/	.
4r	.	(4.cc-\)	.
4D'\ 4F'\ 4A-'\ 4c-'\	.	.	.
.	.	8b-\)	.
=45	=45	=45	=45
4r	.	2a-/	.
4E-'\ 4A-'\ 4c'\	.	.	.
4r	.	(4.g/	.
4E-'\ 4B-'\ 4d-'\	.	.	.
.	.	8ee-\)	.
=46	=46	=46	=46
4r	.	(4ee-\	.
4A-'\ 4c'\	.	4a-\)	.
*clefG2	*clefG2	*	*
.	.	(dd-q/	.
4r	.	(4.ccc-\)	.
4d'/ 4f'/ 4a-'/ 4cc-'/	.	.	.
.	.	8bb-\)	.
=47	=47	=47	=47
4r	.	2aa-\	.
4e-'/ 4a-'/ 4cc'/	.	.	.
4r	.	(4.gg\	.
4e-'/ 4b-'/ 4dd-'/	.	.	.
.	.	8eee-\)	.
=48	=48	=48	=48
1A- 1B- 1d- 1e- 1g	.	1dd- 1gg 1eee-	ff
=49	=49	=49	=49
4A-/ 4c/ 4e-/ 4a-/	.	4cc\ 4ee-\ 4aa-\	p
4r	.	4r	.
4r	.	4r	.
=50:|!	=50:|!	=50:|!|:	=50:|!|:
*>B	*>B	*>B	*>B
*clefF4	*clefF4	*	*
4r	.	4e-'/	p
=51	=51	=51	=51
1r	.	4a-'\	.
.	.	4cc'\	.
.	.	4ee-'\	.
.	.	4aa-'\	.
=52	=52	=52	=52
4r	.	(4.ccc\	.
4A-\ 4c\ 4e-\	.	.	.
.	.	24bb-\LL	.
.	.	24aa-\	.
.	.	24gg\JJ	.
4A-\ 4c\ 4e-\	.	4r	.
4A-\ 4c\ 4e-\	.	4aa-'\)	.
=53	=53	=53	=53
.	.	(dd-q/	.
4r	.	(4.ddd-\)	.
4G\ 4B-\ 4d-\ 4e-\	.	.	.
.	.	24ccc\LL	.
.	.	24bb-\	.
.	.	24aa\JJ	.
4G\ 4B-\ 4d-\ 4e-\	.	4r	.
4G\ 4B-\ 4d-\ 4e-\	.	4bb-'\)	.
=54	=54	=54	=54
1r	.	4b-'\	.
.	.	4dd-'\	.
.	.	4gg'\	.
.	.	4bb-'\	.
=55	=55	=55	=55
.	.	(dd-q/	.
4r	.	(4.ddd-\)	.
4G\ 4B-\ 4d-\ 4e\	.	.	.
.	.	24ccc\LL	.
.	.	24bb-\	.
.	.	24aa\JJ	.
4G\ 4B-\ 4d-\ 4e\	.	4r	.
4G\ 4B-\ 4d-\ 4e\	.	4bb-'\)	.
=56	=56	=56	=56
.	.	(dd-q/	.
4r	.	(4.ddd-\)	.
4G-\ 4B-\ 4d-\ 4e\	.	.	.
.	.	24ccc\LL	.
.	.	24bb-\	.
.	.	24aa\JJ	.
4G-\ 4B-\ 4d-\ 4e\	.	4r	.
4G-\ 4B-\ 4d-\ 4e\	.	4bb-'\)	.
=57	=57	=57	=57
8F\L	.	4aa\	.
8f\	.	.	.
8F\	.	4r	.
8f\J	.	.	.
8F\L	.	4r	.
8f\	.	.	.
8F\	.	(4gg-\	p
8f\J	.	.	.
=58	=58	=58	=58
8F\L	.	4ff\	.
8f\	.	.	.
8F\	.	4ee-\	.
8f\J	.	.	.
8F\L	.	4cc\	.
8f\	.	.	.
8F\	.	4a\)	.
8f\J	.	.	.
=59	=59	=59	=59
*^	*	*	*
(2e-/	4F\	.	(4.g-/	.
.	4F\	.	.	.
.	.	.	8f/	.
4d-/)	8F\L	.	4b-'/)	.
.	8f\	.	.	.
4r	8F\	.	(4gg-\	.
.	8f\J	.	.	.
*v	*v	*	*	*
=60	=60	=60	=60
8F\L	.	4ff\	.
8f\	.	.	.
8F\	.	4ee-\	.
8f\J	.	.	.
8F\L	.	4cc\	.
8f\	.	.	.
8F\	.	4a\)	.
8f\J	.	.	.
=61	=61	=61	=61
*^	*	*	*
(2e-/	4F\	.	(4.g-/	.
.	4F\	.	.	.
.	.	.	8f/	.
4d-/)	8F\L	.	4b-'/)	.
.	8f\	.	.	.
4r	8F\	.	(4gg-\	.
.	8f\J	.	.	.
*v	*v	*	*	*
=62	=62	=62	=62
8F\L	.	4ff\	.
8f\	.	.	.
8F\	.	4ee-\	.
8f\J	.	.	.
8e-\L	.	4cc\	.
8f\	.	.	.
8e-\	.	4a\)	.
8f\J	.	.	.
=63	=63	=63	=63
8d-\L	.	8r	.
8f\	.	(8a\L	.
8d-\	.	8cc\	.
8f\J	.	8b-\J)	.
8c\L	.	8r	.
8f\	.	(8b-\L	.
8c\	.	8dd-\	.
8f\J	.	8cc\J)	.
=64	=64	=64	=64
8B-\L	.	8r	.
8f\	.	(8cc\L	.
8B-\	.	8ee-\	.
8f\J	.	8dd-\J)	.
8A-\L	.	8r	.
8f#\	.	8b\L	.
8A-\	.	8dd\	.
8f#\J	.	8cc\J	.
=65	=65	=65	=65
8G\L	.	4b\	.
8g\	.	.	.
8G\	.	4r	.
8g\J	.	.	.
8G\L	.	4r	.
8g\	.	.	.
8G\	.	(4aa-\	.
8g\J	.	.	.
=66	=66	=66	=66
8G\L	.	4gg\	.
8g\	.	.	.
8G\	.	4ff\	.
8g\J	.	.	.
8G\L	.	4dd\	.
8g\	.	.	.
8G\	.	4b\)	.
8g\J	.	.	.
=67	=67	=67	=67
*^	*	*	*
(2f/	4G\	.	(4.a-/	.
.	4G\	.	.	.
.	.	.	8g/	.
4e-/)	8G\L	.	4cc'/)	.
.	8g\	.	.	.
4r	8G\	.	(4aa-\	.
.	8g\J	.	.	.
*v	*v	*	*	*
=68	=68	=68	=68
8G\L	.	4gg\	.
8g\	.	.	.
8G\	.	4ff\	.
8g\J	.	.	.
8G\L	.	4dd\	.
8g\	.	.	.
8G\	.	4b\)	.
8g\J	.	.	.
=69	=69	=69	=69
*^	*	*	*
(2f/	4G\	.	(4.a-/	.
.	4G\	.	.	.
.	.	.	8g/	.
4e-/)	4G\	.	4cc'/)	.
4r	(4A-\	.	8f/L	.
.	.	.	8d/J	.
*v	*v	*	*	*
=70	=70	=70	=70
4G\	.	8f/L	.
.	.	8d/	.
4F\	.	8f/	.
.	.	8d/J	.
4D\	.	8f/L	.
.	.	8d/	.
4BB/)	.	8f/	.
.	.	8d/J	.
=71	=71	=71	=71
*	*	*^	*
(4.AA-/	.	4r	8f\L	.
.	.	.	8d\	.
.	.	(4b/	8f\	.
8GG/	.	.	8d\J	.
4C'/)	.	4cc/)	8e-\L	.
.	.	.	8c\	.
(4G-\	.	4r	8e-\	.
.	.	.	8c\J	.
=72	=72	=72	=72	=72
4F\	.	1r	8e-\L	.
.	.	.	8c\	.
4E-\	.	.	8e-\	.
.	.	.	8c\J	.
4C/	.	.	8e-\L	.
.	.	.	8c\	.
4AA/)	.	.	8e-\	.
.	.	.	8c\J	.
=73	=73	=73	=73	=73
(4.GG-/	.	4r	8e-\L	.
.	.	.	8c\	.
.	.	(4a/	8e-\	.
8FF/	.	.	8c\J	.
4BB-'/)	.	4b-/)	8d-\L	.
.	.	.	8B-\	.
(4F-\	.	4r	8d-\	.
.	.	.	8B-\J	.
=74	=74	=74	=74	=74
4E-\	.	1r	8d-\L	.
.	.	.	8B-\	.
4D-\	.	.	8d-\	.
.	.	.	8B-\J	.
4BB-/	.	.	8d-\L	.
.	.	.	8B-\	.
4GG/)	.	.	8d-\	.
.	.	.	8B-\J	.
=75	=75	=75	=75	=75
(4FF-/	.	2r	8d-\L	.
.	.	.	8B-\	.
2EE-/)	.	.	8d-\	.
.	.	.	8B-\J	.
.	.	2g/	8d-\L	.
.	.	.	8B-\	.
[4E-\	.	.	8d-\	.
.	.	.	8B-\J	.
=76	=76	=76	=76	=76
4E-\]	.	2r	8c\L	.
.	.	.	8A-\	.
2C\	.	.	8e-\	.
.	.	.	8A-\J	.
.	.	2a-/	8e-\L	.
.	.	.	8A-\	.
[4CC/	.	.	8e-\	.
.	.	.	8A-\J	.
=77	=77	=77	=77	=77
4CC/]	.	2r	8d-\L	.
.	.	.	8A-\	.
2DD-/	.	.	8d-\	.
.	.	.	8A-\J	.
.	.	2f/	8d-\L	.
.	.	.	8A-\	.
[4D-/	.	.	8d-\	.
.	.	.	8A-\J	.
=78	=78	=78	=78	=78
4D-/]	.	2r	8d-\L	.
.	.	.	8G\	.
2BB-/	.	.	8d-\	.
.	.	.	8G\J	.
.	.	2g/	8d-\L	.
.	.	.	8G\	.
[4BBB-/	.	.	8d-\	.
.	.	.	8G\J	.
=79	=79	=79	=79	=79
4BBB-/]	.	2r	8c\L	.
.	.	.	8G\	.
2CC/	.	.	8c\	.
.	.	.	8G\J	.
.	.	2e/	8c\L	.
.	.	.	8G\	.
[4C/	.	.	8c\	.
.	.	.	8G\J	.
=80	=80	=80	=80	=80
4C/]	.	2r	8A-\L	.
.	.	.	8F\	.
2AA-/	.	.	8c\	.
.	.	.	8F\J	.
.	.	2f/	8c\L	.
.	.	.	8F\	.
4AAA-/	.	.	8c\	.
.	.	.	8F\J	.
=81	=81	=81	=81	=81
4r	.	2r	8d-\L	.
.	.	.	8F\	.
(2BBB-/	.	.	8d-\	.
.	.	.	8F\J	.
.	.	2f/	8d-\L	.
.	.	.	8F\	.
4BB-/)	.	.	8d-\	.
.	.	.	8F\J	.
*	*	*v	*v	*
=82	=82	=82	=82
4r	.	8d/L	.
.	.	8F/	.
(2BBB/	.	8A-/ 8d/ 8f/	.
.	.	8F/J	.
.	.	8A-/ 8d/ 8f/L	.
.	.	8F/	.
4BB/)	.	8A-/ 8d/ 8f/	.
.	.	8F/J	.
=83	=83	=83	=83
8CC/L	.	4G/ 4c/ 4e/	.
8C/	.	.	.
8E/	.	4r	.
8C/J	.	.	.
8E/L	.	4r	.
8C/	.	.	.
8E/	.	(4cc\	.
8C/J	.	.	.
=84	=84	=84	=84
8F\L	.	4a-'\)	.
8C\	.	.	.
8F\	.	4r	.
8C\J	.	.	.
8F\L	.	4r	.
8C\	.	.	.
8A-\	.	(4ff\	.
8C\J	.	.	.
=85	=85	=85	=85
8G\L	.	4ee'\)	.
8C\	.	.	.
8G\	.	4r	.
8C\J	.	.	.
8G\L	.	4r	.
8C\	.	.	.
8B-\	.	(4ccc\	.
8C\J	.	.	.
=86	=86	=86	=86
8A-\L	.	4ff'\)	.
8C\	.	.	.
8c\	.	4r	.
8C\J	.	.	.
8B\L	.	2ff\ (2fff\	.
8C\	.	.	.
8d\	.	.	.
8C\J	.	.	.
=87	=87	=87	=87
8c\L	.	4ee\ 4eee\)	.
8C\	.	.	.
8E\	.	4r	.
8C\J	.	.	.
8E\L	.	4r	.
8C\	.	.	.
8E\	.	(4cc\	.
8C\J	.	.	.
=88	=88	=88	=88
8F\L	.	4a-'/)	.
8C\	.	.	.
8F\	.	4a-'/	.
8C\J	.	.	.
8F\L	.	4r	.
8C\	.	.	.
8A-\	.	(4ff\	.
8C\J	.	.	.
=89	=89	=89	=89
8G\L	.	4ee'\)	.
8C\	.	.	.
8G\	.	4ee'\	.
8C\J	.	.	.
8G\L	.	4r	.
8C\	.	.	.
8B-\	.	(4ccc\	.
8C\J	.	.	.
=90	=90	=90	=90
8A-\L	.	4ff'\)	.
8C\	.	.	.
8c\	.	4ff'\	.
8C\J	.	.	.
8B\L	.	4r	.
8C\	.	.	.
8d\	.	4ff\ (4fff\	.
8C\J	.	.	.
=91	=91	=91	=91
8c\L	.	4ee'\ 4eee'\)	.
8C\	.	.	.
8c\	.	4ee'\ 4eee'\	.
8C\J	.	.	.
8B-\L	.	4r	.
8C\	.	.	.
8B-\	.	4dd-\ (4ddd-\	.
8C\J	.	.	.
=92	=92	=92	=92
8A-\L	.	4cc'\ 4ccc'\)	.
8C\	.	.	.
8c\	.	4cc'\ 4ccc'\	.
8C\J	.	.	.
8B\L	.	4r	.
8C\	.	.	.
8d\	.	4ff\ (4fff\	.
8C\J	.	.	.
=93	=93	=93	=93
8c\L	.	4ee'\ 4eee'\)	.
8C\	.	.	.
8c\	.	4ee'\ 4eee'\	.
8C\J	.	.	.
8B-\L	.	4r	.
8C\	.	.	.
8B-\	.	4dd-\ (4ddd-\	.
8C\J	.	.	.
=94	=94	=94	=94
8A-\L	.	4cc'\ 4ccc'\)	.
8C\	.	.	.
8c\	.	4cc'\ 4ccc'\	.
8C\J	.	.	.
8B\L	.	4r	.
8C\	.	.	.
8d\	.	4ff\ (4fff\	.
8C\J	.	.	.
=95	=95	=95	=95
(4c'\	.	4ee'\ 4eee'\)	pp
4c'\	.	4r	.
4c'\	.	2r	.
4c'\)	.	.	.
=96	=96	=96	=96
(4c'\	.	1r	.
4c'\	.	.	.
4c'\	.	.	.
4c'\)	.	.	.
=97	=97	=97	=97
4c'\ (4d-'\	.	4r	.
4c'\ 4d-'\	.	8r	.
.	.	(24a-/LL	pp
.	.	24g-/	.
.	.	24f/JJ	.
4c'\ 4d-'\	.	&(4g-'/&))	.
4c'\ 4d-'\)	.	4r	.
=98	=98	=98	=98
4B-'\ (4d-'\	.	4r	.
4B-'\ 4d-'\	.	8r	.
.	.	(24eee-\LL	.
.	.	24ddd-\	.
.	.	24ccc\JJ	.
4B-'\ 4d-'\	.	4r	.
4B-'\ 4d-'\)	.	4ddd-'\)	.
=99	=99	=99	=99
4B-'\ (4c'\	.	4r	.
4B-'\ 4c'\	.	8r	.
.	.	(24f/LL	.
.	.	24e/	.
.	.	24d/JJ	.
4B-'\ 4c'\	.	4r	.
4B-'\ 4c'\)	.	4e'/)	.
=100	=100	=100	=100
4A-'\ (4c'\	.	4r	.
4A-'\ 4c'\	.	8r	.
.	.	(24ddd-\LL	.
.	.	24ccc\	.
.	.	24bb\JJ	.
4A-'\ 4c'\	.	4r	.
4A-'\ 4c'\)	.	4ccc'\)	.
=101	=101	=101	=101
4A-'\ (4B-'\	.	4r	.
4A-'\ 4B-'\	.	8r	.
.	.	(24e-/LL	.
.	.	24d/	.
.	.	24c/JJ	.
4A-'\ 4B-'\	.	4d'/)	.
4A-'\ 4B-'\)	.	4r	.
=102	=102	=102	=102
4G'\ 4B-'\ (4e'\	.	4r	.
4G'\ 4B-'\ 4e'\	.	8r	.
.	.	(24ccc\LL	.
.	.	24bb-\	.
.	.	24aa\JJ	.
4G'\ 4B-'\ 4e'\	.	4r	.
4G'\ 4B-'\ 4e'\)	.	4bb-'\)	.
=103	=103	=103	=103
4F\ 4A-\ 4c\	.	4f'/	f
4r	.	4a-'/	.
2r	.	4cc'\	.
.	.	4ff'\	.
=104	=104	=104	=104
4r	.	(4.aa-\	.
4F\ 4A-\ 4c\	.	.	.
.	.	24gg\LL	.
.	.	24ff\	.
.	.	24ee\JJ	.
4F\ 4A-\ 4c\	.	4r	.
4F\ 4A-\ 4c\	.	4ff'\)	.
=105	=105	=105	=105
4E\ 4G\ 4B-\ 4c\	.	4g'/	.
4r	.	4cc'\	.
2r	.	4ee'\	.
.	.	4gg'\	.
=106	=106	=106	=106
4r	.	(4.bb-\	.
4E\ 4G\ 4B-\ 4c\	.	.	.
.	.	24aa-\LL	.
.	.	24gg\	.
.	.	24ff\JJ	.
4E\ 4G\ 4B-\ 4c\	.	4r	.
4E\ 4G\ 4B-\ 4c\	.	4gg'\)	.
=107	=107	=107	=107
.	.	(ccq/	.
2F\ 2A-\ 2c\	.	(4.aa-\)	.
.	.	24gg\LL	.
.	.	24ff\	.
.	.	24ee\JJ	.
2r	.	4ff'\)	.
.	.	4r	.
=108	=108	=108	=108
.	.	(ccq/	.
2G\ 2B-\ 2e\	.	(4.bb-\)	.
.	.	24aa-\LL	.
.	.	24gg\	.
.	.	24ff\JJ	.
2r	.	4r	.
.	.	4gg'\)	.
=109	=109	=109	=109
4A-\ 4c\ 4f\	.	2cc\ 2ff\ 2aa-\ 2ccc\	ff
4r	.	.	.
4B-\ 4d-\ 4g\	.	(8bb-\L	.
.	.	8aa-\	.
4r	.	8gg\	.
.	.	8ff\J)	.
=110	=110	=110	=110
.	.	(eeq/LL	.
.	.	ffq/	.
.	.	ggq/JJ	.
4c\ 4g\	.	(4ff\)	p
4r	.	4ee\)	.
4r;	.	4r;	.
4C'/	p	4r	.
=111	=111	=111	=111
4F'\	.	1r	.
4A-'\	.	.	.
4c'\	.	.	.
4f'\	.	.	.
*clefG2	*clefG2	*	*
=112	=112	=112	=112
(4.a-/	.	1r	.
24g/LL	.	.	.
24f/	.	.	.
24e/JJ)	.	.	.
4f'/	.	.	.
4f'/	.	.	.
=113	=113	=113	=113
1f 1g-	.	(4.bb-\	.
.	.	24aa-\LL	.
.	.	24gg-\	.
.	.	24ff\JJ	.
.	.	4gg-'\)	.
.	.	4gg-'\	.
=114	=114	=114	=114
*	*	*^	*
1e- 1g-	.	[1gg-	4r	.
.	.	.	8r	.
.	.	.	24dd-\LL	.
.	.	.	24cc\	.
.	.	.	24b\JJ	.
.	.	.	4cc'\	.
.	.	.	4cc'\	.
=115	=115	=115	=115	=115
1e- 1a	.	4.gg-/]	[1cc	.
.	.	(24gg-/LL	.	.
.	.	24ff/	.	.
.	.	24ee/JJ	.	.
.	.	4ff'/)	.	.
.	.	4ff'/	.	.
=116	=116	=116	=116	=116
1d- 1f	.	1ff	4.cc\]	.
.	.	.	24cc\LL	.
.	.	.	24b-\	.
.	.	.	24a\JJ	.
.	.	.	4b-'\	.
.	.	.	4b-'\	.
=117	=117	=117	=117	=117
*^	*	*	*	*
(2.f/	[1d	.	4r	1b	.
.	.	.	8r	.	.
.	.	.	(24gg/LL	.	.
.	.	.	24ff/	.	.
.	.	.	24ee/JJ	.	.
.	.	.	(4ff/)	.	.
4e/)	.	.	4gg/	.	.
*	*	*	*v	*v	*
=118	=118	=118	=118	=118
(4f/	1d]	.	4aa-\	.
4g/	.	.	4ee\	.
4a-/	.	.	4ff\	.
4f/)	.	.	4b\)	.
=119	=119	=119	=119	=119
(4e/	[1c	.	(4cc\	.
4g/	.	.	4ee\	.
4f/	.	.	4ff\	.
4e/	.	.	4gg\	.
=120	=120	=120	=120	=120
4f/	2c\]	.	4aa-\	.
4b-/	.	.	4ee\	.
4a-/	2d-\	.	4ff\	.
4f/)	.	.	4b\	.
*v	*v	*	*	*
*clefF4	*clefF4	*	*
=121	=121	=121	=121
8C\L	.	4e/ 4cc/)	.
8c\	.	.	.
8C\	.	4r	.
8c\J	.	.	.
8C\L	.	4r	.
8c\	.	.	.
8C\	.	(4dd-\	p
8c\J	.	.	.
=122	=122	=122	=122
8C\L	.	4cc\	.
8c\	.	.	.
8C\	.	4b-\	.
8c\J	.	.	.
8C\L	.	4g/	.
8c\	.	.	.
8C\	.	4e/)	.
8c\J	.	.	.
=123	=123	=123	=123
*^	*	*	*
(2B-/	4C\	.	(4.d-/	.
.	4C\	.	.	.
.	.	.	8c/	.
4A-/)	8C\L	.	4f'/)	.
.	8c\	.	.	.
4r	8C\	.	(4ddd-\	.
.	8c\J	.	.	.
*v	*v	*	*	*
=124	=124	=124	=124
8C\L	.	4ccc\	.
8c\	.	.	.
8C\	.	4bb-\	.
8c\J	.	.	.
8C\L	.	4gg\	.
8c\	.	.	.
8C\	.	4ee\)	.
8c\J	.	.	.
=125	=125	=125	=125
*^	*	*	*
(2B-/	4C\	.	(4.dd-\	.
.	4C\	.	.	.
.	.	.	8cc\	.
4A-/)	8C\L	.	4ff'\)	.
.	8c\	.	.	.
4r	8C\	.	(4ddd-\	.
.	8c\J	.	.	.
*v	*v	*	*	*
=126	=126	=126	=126
8C\L	.	4ccc\	.
8c\	.	.	.
8C\	.	4bb-\	.
8c\J	.	.	.
8B-\L	.	4gg\	.
8c\	.	.	.
8B-\	.	4ee\)	.
8c\J	.	.	.
=127	=127	=127	=127
8A-\L	.	8r	.
8f\	.	8ee\L	.
8c\	.	8gg\	.
8f\J	.	8ff\J	.
8G\L	.	8r	.
8e\	.	8ff\L	.
8B-\	.	8aa-\	.
8e\J	.	8gg\J	.
=128	=128	=128	=128
8F\L	.	8r	.
8c\	.	(8gg\L	.
8A-\	.	8bb-\	.
8c\J	.	8aa-\J)	.
8D-\L	.	8r	.
8B\	.	(8bb\L	.
8F\	.	8fff\	.
8B\J	.	8bb\J)	.
=129	=129	=129	=129
8C\L	.	4ccc\	.
8c\	.	.	.
8E\	.	4r	.
8c\J	.	.	.
8D-\L	.	8r	.
8B\	.	(8bb\L	.
8F\	.	8fff\	.
8B\J	.	8bb\J)	.
=130	=130	=130	=130
8C\L	.	4ccc\	.
8c\	.	.	.
8E\	.	4r	.
8c\J	.	.	.
8BB-\L	.	8r	.
8G\	.	(8ee\L	.
8D-\	.	8ddd-\	.
8G\J	.	8ee\J)	.
=131	=131	=131	=131
8AA-\L	.	4ff\	.
8F\	.	.	.
8C\	.	4r	.
8F\J	.	.	.
8BB-\L	.	8r	.
8G\	.	(8ee\L	.
8D-\	.	8ddd-\	.
8G\J	.	8ee\J)	.
=132	=132	=132	=132
8AA-/L	.	8r	.
8F/	.	(8ee\L	.
8C/	.	8gg\	.
8F/J	.	8ff\J)	.
8EE/L	.	8r	.
8E/	.	(8ff\L	.
8C/	.	8aa-\	.
8E/J	.	8gg\J)	.
=133	=133	=133	=133
8FF/L	.	8r	.
8F/	.	(8gg\L	.
8C/	.	8bb-\	.
8F/J	.	8aa-\J)	.
8GG/L	.	8r	.
8G/	.	(8aa\L	.
8C/	.	8ccc\	.
8G/J	.	8bb-\J)	.
=134	=134	=134	=134
4AA-/	.	8r	.
.	.	(8ccc\L	ff
2C/	.	8fff\	.
.	.	8eee-\J	.
.	.	8ddd-\L	.
.	.	8ccc\	.
4F\	.	8bb-\	.
.	.	8aa-\J	.
=135	=135	=135	=135
4BB-/	.	8gg\L	.
.	.	8ff\	.
2D-/	.	8ee-\	.
.	.	8dd-\J	.
.	.	8cc\L	.
.	.	8b-\	.
4G\	.	8a-\	.
.	.	8g\J)	.
=136	=136	=136	=136
4C\	.	(8f/L	.
.	.	8e/	.
2F\	.	8d-/	.
.	.	8c/J	.
.	.	8B/L	.
.	.	8c/	.
4A-\	.	8B/	.
.	.	8c/J	.
=137	=137	=137	=137
(4B-\	.	8B/L	pp
.	.	8c/	.
4G\	.	8d-/	.
.	.	8c/J	.
4E\	.	8B/L	.
.	.	8c/	.
4BB-/)	.	8d-/	.
.	.	8c/J)	.
=138	=138	=138	=138
4AA-/	.	8r	.
.	.	8ccc\L	ff
2C/	.	8fff\	.
.	.	8eee-\J	.
.	.	8ddd-\L	.
.	.	8ccc\	.
4F\	.	8bb-\	.
.	.	8aa-\J	.
=139	=139	=139	=139
4BB-/	.	8gg\L	.
.	.	8ff\	.
2D-/	.	8ee-\	.
.	.	8dd-\J	.
.	.	8cc\L	.
.	.	8b-\	.
4G\	.	8a-\	.
.	.	8g\J	.
=140	=140	=140	=140
4C\	.	8f/L	.
.	.	8e/	.
2F\	.	8d-/	.
.	.	8c/J	.
.	.	8B/L	.
.	.	8c/	.
4A-\	.	8B/	.
.	.	8c/J	.
=141	=141	=141	=141
4r	.	(8B/L	p
.	.	8c/	.
4CC/	.	8d-/	.
.	.	8c/J	.
4CC/	.	8c/L	.
.	.	8B-/	.
4CC/	.	8A-/	.
.	.	8G/J	.
=142	=142	=142	=142
4FF\	.	4F/)	.
4F\	.	4r	.
.	.	(Bq/	.
4r	.	(4.a-/)	.
4D-'\ 4F'\ 4A-'\ 4B'\	.	.	.
.	.	8g/	.
=143	=143	=143	=143
4r	.	2f/)	.
4C'\ 4F'\ 4A-'\ 4c'\	.	.	.
4r	.	(4.e/	.
4C'\ 4G'\ 4B-'\	.	.	.
.	.	8cc\)	.
=144	=144	=144	=144
4r	.	(4cc\	.
4F'\ 4A-'\	.	4f/)	.
.	.	(Bq/	.
4r	.	(4.a-/)	.
4D-'\ 4F'\ 4A-'\ 4B'\	.	.	.
.	.	8g/	.
=145	=145	=145	=145
4r	.	2f/)	.
4C'\ 4F'\ 4A-'\ 4c'\	.	.	.
4r	.	(4.e/	.
4C'\ 4G'\ 4B-'\	.	.	.
.	.	8cc\)	.
=146	=146	=146	=146
4r	.	(4cc\	.
4F'\ 4A-'\	.	4f/)	.
*clefG2	*clefG2	*	*
.	.	(b-q/	.
4r	.	(4.aa-\)	.
4d-'/ 4f'/ 4a-'/ 4b'/	.	.	.
.	.	8gg\	.
=147	=147	=147	=147
4r	.	2ff\)	.
4c'/ 4f'/ 4a-'/ 4cc'/	.	.	.
4r	.	(4.ee\	.
*clefF4	*clefF4	*	*
4B-'\ 4c'\ 4g'\	.	.	.
.	.	8ccc\)	.
=148	=148	=148	=148
(1A 1c 1f	.	1cc 1ee- (1ccc	ff
=149	=149	=149	=149
4B-\) 4d-\ 4f\	.	4b-\ 4dd-\ 4ff\)	.
4r	.	4r	.
4r	.	4r	.
8r	.	8r	.
8B-\ 8d-\ 8f\	.	8b-\ 8dd-\ 8bb-\	.
=150	=150	=150	=150
(1G 1B- 1e-	.	1b- 1dd- (1bb-	ff
=151	=151	=151	=151
4A-\) 4c\ 4e-\	.	4a-\ 4cc\ 4ee-\)	.
4r	.	4r	.
4r	.	4r	.
4F'\ 4d-'\	.	4a-'\ 4cc'\ 4aa-'\	.
=152	=152	=152	=152
4G'\ 4d-'\	.	4g'\ 4b-'\ 4dd-'\	.
4E'\ 4c'\	.	4g'\ 4b-'\ 4gg'\	.
4F'\ 4c'\	.	4f'\ 4a-'\ 4cc'\	.
4D-'\ 4d-'\	.	4f'\ 4a-'\ 4ff'\	.
=153	=153	=153	=153
4BB-'\ 4D-'\ 4G'\ 4B-'\	.	4f'\ 4g'\ 4dd-'\ 4ff'\	ff
4r	.	4r	.
4C'\ 4E'\ 4G'\ 4c'\	.	4e'\ 4g'\ 4b-'\ 4cc'\ 4ee'\	.
4r	.	4r	.
=154	=154	=154	=154
4FF'/ 4AA-'/ 4C'/ 4F'/	.	4f'\ 4a-'\ 4cc'\ 4ff'\	.
4r	.	4r	.
4r	.	4r	.
==:|!	==:|!	==:|!	==:|!
*-	*-	*-	*-
!!!ENC: Craig Stuart Sapp
!!!END: 2004/04/05/
!!!ONB: Not proof-read plus some note/rest interpolation errors from SharpEye

